X:1
T:118 - Santo Espírito
T:Letra: Sarah Poulton Kalley (1825-1907)
T:Música: Melchior Teschner (1584-1685)
M:4/4
L:1/8
Q:1/4=100
K:C
V:1
"C"C2 | "G"G2 "(C)"G2 "(F)"A2 "G7"B2 | "C"c4 c2 e2 | "(G7)"d2 "(Am)"c2 "(F)"c2 "G"B2 | "C"c4z2 C2 | "G"G2 "(C)"G2 "(F)"A2 "G7"B2 | "C"c4 c2 e2 | "(G7)"d2 "(Am)"c2 "(F)"c2 "G"B2 | "C"c4z2 (cd) | e2 e2 "(G)"d2 "(C)"c2 | ("G"B2 "(D)"A2) "Em"G2 B2 | "Am"c2 "(G)"B2 "(Am)"A2 A2 | "G"G4z2 G2 | "C"E2 G2 "F"A2 G2 | ("G"G3F) "Am"E2 "(C7)"G2 | "F"F2 "(C)"E2 "(Dm)"D2 "G7"D2 | "C"C4z2 |]
w: Je-sus, ao céu su-bin-do, Se pe-nho-rou man-dar Seu bom e san-toEs-pí-ri-to,A fim de nos gui-ar; Eo_ gran-de,ex-cel-so Gui_a, Em nós a-go-raes-tá, O mun-doa-lém re-ve_la, Con-duz-nos pa-ra lá.
W: 
W:
W: Jesus, ao céu subindo,
W: Se penhorou mandar
W: Seu bom e santo Espírito,
W: A fim de nos guiar;
W: E o grande, excelso Guia,
W: Em nós agora está,
W: O mundo além revela,
W: Conduz-nos para lá.
W:         
W: 





